agir/front/components/genericComponents/logos/telegram.svg

<svg width="24" height="24" viewBox="0 0 24 24" fill="none" xmlns="http://www.w3.org/2000/svg">
<path d="M12 24C18.6274 24 24 18.6274 24 12C24 5.37258 18.6274 0 12 0C5.37258 0 0 5.37258 0 12C0 18.6274 5.37258 24 12 24Z" fill="url(#paint0_linear)"/>
<path d="M4.46909 12.5872C5.87189 11.8145 7.43779 11.1696 8.90089 10.5214C11.418 9.45966 13.9451 8.41636 16.4977 7.44506C16.9943 7.27956 17.8867 7.11776 17.9742 7.85376C17.9263 8.89556 17.7292 9.93126 17.594 10.967C17.2509 13.2446 16.8542 15.5144 16.4675 17.7845C16.3342 18.5406 15.387 18.9321 14.7809 18.4482C13.3243 17.4643 11.8565 16.49 10.4185 15.4833C9.94739 15.0046 10.3843 14.3173 10.8049 13.9755C12.0046 12.7931 13.2769 11.7887 14.4139 10.5453C14.7206 9.80456 13.8144 10.4288 13.5155 10.6201C11.8731 11.7519 10.2709 12.9528 8.53929 13.9475C7.65479 14.4344 6.62389 14.0183 5.73979 13.7466C4.94709 13.4184 3.78549 13.0877 4.46899 12.5873L4.46909 12.5872Z" fill="white"/>
<defs>
<linearGradient id="paint0_linear" x1="16.001" y1="4.0008" x2="10.001" y2="18" gradientUnits="userSpaceOnUse">
<stop stop-color="#37AEE2"/>
<stop offset="1" stop-color="#1E96C8"/>
</linearGradient>
</defs>
</svg>

<svg width="24" height="24" fill="none" xmlns="http://www.w3.org/2000/svg"><path d="M12 24c6.627 0 12-5.373 12-12S18.627 0 12 0 0 5.373 0 12s5.373 12 12 12Z" fill="url(#a)"/><path d="M4.47 12.587c1.402-.772 2.968-1.417 4.43-2.066 2.518-1.061 5.045-2.105 7.598-3.076.496-.165 1.389-.327 1.476.409-.048 1.042-.245 2.077-.38 3.113-.343 2.278-.74 4.547-1.127 6.818-.133.756-1.08 1.147-1.686.663-1.457-.984-2.925-1.958-4.363-2.965-.47-.478-.034-1.166.387-1.508 1.2-1.182 2.472-2.186 3.609-3.43.307-.74-.6-.116-.899.075-1.642 1.132-3.244 2.333-4.976 3.328-.884.486-1.915.07-2.8-.201-.792-.329-1.954-.66-1.27-1.16Z" fill="#fff"/><defs><linearGradient id="a" x1="16.001" y1="4.001" x2="10.001" y2="18" gradientUnits="userSpaceOnUse"><stop stop-color="#37AEE2"/><stop offset="1" stop-color="#1E96C8"/></linearGradient></defs></svg>
